bicons/22x22/devices/server-web-secure.svg

<?xml version="1.0" encoding="UTF-8" standalone="no"?>
<!-- Created with Inkscape (http://www.inkscape.org/) -->

<svg
   xmlns:dc="http://purl.org/dc/elements/1.1/"
   xmlns:cc="http://creativecommons.org/ns#"
   xmlns:rdf="http://www.w3.org/1999/02/22-rdf-syntax-ns#"
   xmlns:svg="http://www.w3.org/2000/svg"
   xmlns="http://www.w3.org/2000/svg"
   xmlns:xlink="http://www.w3.org/1999/xlink"
   xmlns:sodipodi="http://sodipodi.sourceforge.net/DTD/sodipodi-0.dtd"
   xmlns:inkscape="http://www.inkscape.org/namespaces/inkscape"
   width="210mm"
   height="297mm"
   viewBox="0 0 744.09448819 1052.3622047"
   id="svg2"
   version="1.1"
   inkscape:version="0.91 r13725"
   inkscape:export-xdpi="4.9494629"
   inkscape:export-ydpi="4.9494629"
   sodipodi:docname="server-web-secure.svg"
   inkscape:export-filename="D:\Dokumente\Arbeit\RRZE\github\bicons\22x22\devices\server-web-secure.png">
  <defs
     id="defs4">
    <linearGradient
       id="linearGradient2224">
      <stop
         id="stop2226"
         offset="0"
         style="stop-color:#7c7c7c;stop-opacity:1;" />
      <stop
         id="stop2228"
         offset="1"
         style="stop-color:#b8b8b8;stop-opacity:1;" />
    </linearGradient>
    <linearGradient
       id="linearGradient15218">
      <stop
         id="stop15220"
         offset="0"
         style="stop-color:#eeeeef;stop-opacity:1;" />
      <stop
         id="stop2736"
         offset="0.59928656"
         style="stop-color:#d3d7cf;stop-opacity:1;" />
      <stop
         id="stop2738"
         offset="0.82758623"
         style="stop-color:#ffffff;stop-opacity:1;" />
      <stop
         id="stop15222"
         offset="1"
         style="stop-color:#d3d7cf;stop-opacity:1;" />
    </linearGradient>
    <pattern
       y="0"
       x="0"
       height="6"
       width="6"
       patternUnits="userSpaceOnUse"
       id="EMFhbasepattern" />
    <pattern
       y="0"
       x="0"
       height="6"
       width="6"
       patternUnits="userSpaceOnUse"
       id="EMFhbasepattern-5" />
    <linearGradient
       inkscape:collect="always"
       xlink:href="#linearGradient4287"
       id="linearGradient4293"
       x1="36.360001"
       y1="400"
       x2="363.59998"
       y2="0.29210579"
       gradientUnits="userSpaceOnUse"
       gradientTransform="translate(192.99806,322.36222)" />
    <linearGradient
       inkscape:collect="always"
       id="linearGradient4287">
      <stop
         style="stop-color:#4e505d;stop-opacity:1;"
         offset="0"
         id="stop4289" />
      <stop
         style="stop-color:#7a859c;stop-opacity:1"
         offset="1"
         id="stop4291" />
    </linearGradient>
  </defs>
  <sodipodi:namedview
     id="base"
     pagecolor="#ffffff"
     bordercolor="#666666"
     borderopacity="1.0"
     inkscape:pageopacity="0.0"
     inkscape:pageshadow="2"
     inkscape:zoom="1"
     inkscape:cx="287.61573"
     inkscape:cy="482.4436"
     inkscape:document-units="px"
     inkscape:current-layer="layer1"
     showgrid="false"
     showguides="true"
     inkscape:guide-bbox="true"
     inkscape:window-width="1600"
     inkscape:window-height="837"
     inkscape:window-x="-4"
     inkscape:window-y="-4"
     inkscape:window-maximized="1"
     inkscape:snap-bbox="true"
     inkscape:snap-bbox-edge-midpoints="false"
     inkscape:bbox-nodes="true"
     inkscape:snap-nodes="true">
    <sodipodi:guide
       position="560,730.00002"
       orientation="0,1"
       id="guide3338" />
    <sodipodi:guide
       position="560,330.00001"
       orientation="0,1"
       id="guide3340" />
    <sodipodi:guide
       position="193,682.25002"
       orientation="1,0"
       id="guide3344" />
    <sodipodi:guide
       position="593.00001,570.00001"
       orientation="1,0"
       id="guide3346" />
    <inkscape:grid
       type="xygrid"
       id="grid3440" />
    <sodipodi:guide
       position="-111.01577,704.98548"
       orientation="0,1"
       id="guide4151" />
    <sodipodi:guide
       position="54.25,355.00001"
       orientation="0,1"
       id="guide4153" />
  </sodipodi:namedview>
  <metadata
     id="metadata7">
    <rdf:RDF>
      <cc:Work
         rdf:about="">
        <dc:format>image/svg+xml</dc:format>
        <dc:type
           rdf:resource="http://purl.org/dc/dcmitype/StillImage" />
        <dc:title>server web secure</dc:title>
        <dc:date>June 2015</dc:date>
        <dc:creator>
          <cc:Agent>
            <dc:title>Johannes Hechler</dc:title>
          </cc:Agent>
        </dc:creator>
        <dc:rights>
          <cc:Agent>
            <dc:title>Johannes Hechler</dc:title>
          </cc:Agent>
        </dc:rights>
        <dc:publisher>
          <cc:Agent>
            <dc:title>RRZE</dc:title>
          </cc:Agent>
        </dc:publisher>
        <dc:contributor>
          <cc:Agent>
            <dc:title>Ute Weber, Hendrik Eggers</dc:title>
          </cc:Agent>
        </dc:contributor>
      </cc:Work>
    </rdf:RDF>
  </metadata>
  <g
     inkscape:label="Ebene 1"
     inkscape:groupmode="layer"
     id="layer1">
    <g
       id="g4193">
      <path
         inkscape:connector-curvature="0"
         id="rect4239"
         d="m 232.99415,322.3622 c -12.08606,0 -21.8164,9.73034 -21.8164,21.81641 l 0,65.44726 c 0,12.08606 9.73034,21.81641 21.8164,21.81641 l 14.54297,0 0,36.35937 -14.54297,0 c -12.08606,0 -21.8164,9.73035 -21.8164,21.81641 l 0,21.45312 c 4.52467,-5.80527 9.49051,-11.10042 14.43164,-15.87304 18.28071,-17.65735 41.90882,-27.21485 67.38086,-27.21485 25.47205,0 49.09823,9.55767 67.3789,27.21485 5.17664,5.00007 10.16594,10.50516 14.625,16.49414 24.90409,-26.85548 60.45389,-43.71117 99.81446,-43.71094 39.46482,-2.2e-4 75.09773,16.94608 100.01172,43.92578 l 0,-22.28906 c 0,-12.08606 -9.73035,-21.81641 -21.81641,-21.81641 l -14.58594,0 0,-36.35937 14.58594,0 c 12.08606,0 21.81641,-9.73035 21.81641,-21.81641 l 0,-65.44726 c 0,-12.08607 -9.73035,-21.81641 -21.81641,-21.81641 l -320.00977,0 z m 32.72461,109.08008 254.51953,0 0,36.35937 -254.51953,0 0,-36.35937 z m 41.37305,74 c 10.42504,2.93258 19.53333,8.77118 26.60547,15.60742 4.15208,4.01334 9.04692,8.35018 13.62305,14.61133 1.87643,2.56737 3.64164,5.56392 5.10351,8.87695 0.0892,-0.18198 0.17566,-0.36535 0.26563,-0.54687 -3.6354,-7.7808 -9.57187,-15.40483 -17.33008,-22.89844 -8.66588,-8.37032 -17.70001,-13.38705 -28.26758,-15.65039 z m -28.23438,0.008 c -10.55404,2.26671 -19.57928,7.28073 -28.23632,15.64258 -13.73423,13.26585 -22.21151,26.54921 -21.48047,39.05859 l 0.0312,0.52344 0,15.86914 c 0.1915,0.0336 0.38295,0.0691 0.57617,0.0977 l 0,-15.44141 c 0,-10.14855 4.10386,-19.31788 8.79102,-25.63867 4.68716,-6.32079 9.64922,-10.59705 13.69921,-14.51172 l 0.0156,-0.0176 0.0176,-0.0156 c 7.08566,-6.81294 16.17887,-12.6351 26.58594,-15.56641 z m 14.13282,33.95313 c -8.13661,0 -8.48993,0.5666 -15.73242,7.53125 -4.61688,4.46263 -8.15655,7.85037 -9.80274,10.07031 -1.64619,2.21975 -1.70703,2.46487 -1.70703,4.19512 l 0,15.68164 54.48438,0 0,-15.07226 c -0.0844,-1.99806 -0.33872,-2.66337 -1.97657,-4.9043 -1.66609,-2.27958 -5.06331,-5.60674 -9.57812,-9.9707 l -0.002,-0.002 c -7.22163,-6.98075 -7.533,-7.52929 -15.68554,-7.52929 z m 262.00586,73.93164 c -0.003,0.0279 -0.005,0.0561 -0.008,0.084 l 0.76954,0 c -0.25296,-0.0317 -0.5061,-0.061 -0.76172,-0.084 z m -324.80274,0.0898 c -10.75351,1.37087 -19.01562,10.50279 -19.01562,21.64062 l 0,65.47266 c 0,1.30632 0.11994,2.58224 0.33789,3.82422 l 163.46289,0 0,-7.72266 c -20.57425,-22.19511 -33.86982,-51.2214 -36.03516,-83.21484 l -108.75,0 z m 344.62696,83.01352 c -9.41852,10.1992 -20.36521,18.96703 -32.47657,25.92383 l 10.65235,0 c 12.09051,0 21.82422,-9.73362 21.82422,-21.82422 l 0,-4.09961 z m -167.91407,25.70508 c -0.038,0.0725 -0.0728,0.14658 -0.11132,0.21875 l 0.47851,0 c -0.12363,-0.071 -0.2438,-0.14736 -0.36719,-0.21875 z"
         style="fill:url(#linearGradient4293);fill-opacity:1;stroke:none;stroke-width:36;stroke-linejoin:round;stroke-miterlimit:4;stroke-dasharray:none" />
      <rect
         ry="9.0899944"
         y="376.90228"
         x="247.53806"
         height="18.179989"
         width="72.720001"
         id="rect4253"
         style="fill:#ffffff;fill-opacity:1;stroke:none;stroke-width:36;stroke-linejoin:round;stroke-miterlimit:4;stroke-dasharray:none" />
      <path
         id="rect4259"
         d="m 202.08805,322.3622 381.82149,0 c 5.03585,0 9.08998,4.05414 9.08998,9.08999 l 0,381.81997 c 0,5.0359 -4.05413,9.09 -9.08998,9.09 l -381.82149,0 c -5.03585,0 -9.08999,-4.0541 -9.08999,-9.09 l 0,-381.81997 c 0,-5.03585 4.05414,-9.08999 9.08999,-9.08999 z"
         style="fill:none;fill-opacity:1;stroke:none;stroke-width:36;stroke-linejoin:round;stroke-miterlimit:4;stroke-dasharray:none"
         inkscape:connector-curvature="0" />
      <path
         inkscape:connector-curvature="0"
         id="path4350"
         d="M 474.80861,485.98134 A 118.19073,118.19004 0 0 0 384.834,527.73329 c 3.18734,6.57583 5.59086,13.60574 6.875,21.0918 a 100.01073,99.98996 0 0 1 43.49609,-36.36133 c -8.1215,15.3353 -13.93388,30.74785 -17.60351,46.23633 l -24.88282,0 c 0.0282,0.82843 0.0449,1.66157 0.0449,2.5 l 0,15.68164 21.50977,0 c -2.35162,18.07806 -1.87799,36.25807 1.11914,54.53711 l -4.41406,0 0,18.18359 8.21289,0 c 3.93095,15.50469 9.60901,31.08071 16.88672,46.72461 a 100.01073,99.98996 0 0 1 -25.09961,-15.24609 l 0,22.5625 a 118.19073,118.19004 0 0 0 63.8301,18.71875 118.19073,118.19004 0 0 0 118.1914,-118.18945 118.19073,118.19004 0 0 0 -118.1914,-118.19141 z m 9.07031,18.63672 a 100.01073,99.98996 0 0 1 9.39844,1.32617 c 10.54369,18.07676 17.50218,35.65692 21.55664,52.75586 l -30.95508,0 0,-54.08203 z m -18.18164,0.043 0,54.03906 -30.85742,0 c 4.30392,-17.67263 11.39709,-35.2516 21.46093,-52.74219 a 100.01073,99.98996 0 0 1 9.39649,-1.29687 z m 48.97461,7.83789 a 100.01073,99.98996 0 0 1 49.21094,46.20117 l -30.49415,0 c -3.67631,-14.87757 -9.72905,-30.24634 -18.71679,-46.20117 z m -83.27735,64.38281 34.30274,0 0,54.53711 -33.41211,0 c -2.99615,-18.28065 -3.35531,-36.45768 -0.89063,-54.53711 z m 52.48438,0 34.2207,0 c 2.32258,18.76897 1.31977,36.93747 -1.99218,54.53711 l -32.22852,0 0,-54.53711 z m 52.88867,0 34.23438,0 a 100.01073,99.98996 0 0 1 3.81836,27.26953 100.01073,99.98996 0 0 1 -3.88477,27.26758 l -36.70703,0 c 3.62874,-17.55588 4.90396,-35.66216 2.53906,-54.53711 z m -179.9043,20.38477 a 118.19073,118.19004 0 0 0 -0.24609,6.90625 118.19073,118.19004 0 0 0 18.36133,63.01172 l 0,-53.16797 c -0.44133,-0.14547 -1.2747,-0.43532 -2.00977,-0.70118 A 18.0018,18.0018 0 0 1 356.86329,597.2665 Z m 79.27735,52.33593 29.55664,0 0,54.08204 a 100.01073,99.98996 0 0 1 -9.2461,-1.3086 c -8.99162,-17.6887 -15.81375,-35.27845 -20.31054,-52.77344 z m 47.73828,0 27.9668,0 c -5.1349,18.36648 -12.51124,36.09012 -20.94922,53.19532 a 100.01073,99.98996 0 0 1 -7.01758,0.85156 l 0,-54.04688 z m 45.74414,0 34.15625,0 a 100.01073,99.98996 0 0 1 -52.85156,47.78321 c 7.2551,-15.6164 13.83516,-31.48589 18.69531,-47.78321 z"
         style="fill:#99b000;fill-opacity:1;stroke:none;stroke-width:36;stroke-linejoin:round;stroke-miterlimit:4;stroke-dasharray:none" />
      <path
         sodipodi:nodetypes="cscssssscscsscsscsscccscsccc"
         style="fill:#99b000;fill-opacity:1;fill-rule:evenodd;stroke:none"
         d="m 388.14286,600.1223 c -3.23869,-3.1027 -7.4787,-3.1402 -11.81434,-4.6984 l -1.56506,0 0,-34.2239 c 0,-20.6106 -11.61775,-38.2959 -26.89883,-53.0558 -15.28109,-14.7599 -33.57218,-22.162 -54.87449,-22.162 -21.30229,0 -39.59382,7.4021 -54.87479,22.162 -15.28102,14.7599 -28.14673,32.4803 -26.94432,53.0558 l 0,34.2239 -1.56499,0 c -4.60708,0 -8.53,1.5957 -11.76865,4.6984 -3.23865,3.147 -4.8808,6.9589 -4.8808,11.4351 l 0,94.71496 c 0,4.4768 1.64215,8.2887 4.8808,11.3914 3.23865,3.147 7.16157,4.6984 11.76865,4.6984 l 166.72248,0 c 4.60713,0 8.57565,-1.5514 11.81434,-4.6984 3.23868,-3.1027 4.8352,-6.9146 4.8352,-11.3914 l 0,-94.71496 c 0,-4.4762 -1.59652,-8.2881 -4.8352,-11.4351 z m -49.91011,-4.6984 -90.48564,0 0,-34.2239 c 0,-11.8788 8.33327,-18.8322 17.00014,-27.2095 8.71253,-8.3772 15.97241,-12.588 28.24289,-12.588 12.27051,0 19.53038,4.2108 28.19665,12.588 8.6669,8.3773 16.58981,15.3307 17.04596,27.2095 z"
         id="path4168-5"
         inkscape:connector-curvature="0" />
      <rect
         ry="9.0900002"
         y="631.41913"
         x="283.8566"
         height="54.543034"
         width="18.18"
         id="rect4525-3"
         style="fill:#ffffff;fill-opacity:1;stroke:none;stroke-width:36;stroke-linejoin:round;stroke-miterlimit:4;stroke-dasharray:none" />
    </g>
  </g>
</svg>

<?xml version="1.0" encoding="UTF-8" standalone="no"?>
<!-- Created with Inkscape (http://www.inkscape.org/) -->

<svg
   xmlns:dc="http://purl.org/dc/elements/1.1/"
   xmlns:cc="http://creativecommons.org/ns#"
   xmlns:rdf="http://www.w3.org/1999/02/22-rdf-syntax-ns#"
   xmlns:svg="http://www.w3.org/2000/svg"
   xmlns="http://www.w3.org/2000/svg"
   xmlns:xlink="http://www.w3.org/1999/xlink"
   xmlns:sodipodi="http://sodipodi.sourceforge.net/DTD/sodipodi-0.dtd"
   xmlns:inkscape="http://www.inkscape.org/namespaces/inkscape"
   width="210mm"
   height="297mm"
   viewBox="0 0 744.09448819 1052.3622047"
   id="svg2"
   version="1.1"
   inkscape:version="0.91 r13725"
   inkscape:export-xdpi="4.9499893"
   inkscape:export-ydpi="4.9499893"
   sodipodi:docname="server-web-secure.svg"
   inkscape:export-filename="D:\Dokumente\Arbeit\RRZE\github\bicons\22x22\devices\server-web-secure.png">
  <defs
     id="defs4">
    <linearGradient
       id="linearGradient2224">
      <stop
         id="stop2226"
         offset="0"
         style="stop-color:#7c7c7c;stop-opacity:1;" />
      <stop
         id="stop2228"
         offset="1"
         style="stop-color:#b8b8b8;stop-opacity:1;" />
    </linearGradient>
    <linearGradient
       id="linearGradient15218">
      <stop
         id="stop15220"
         offset="0"
         style="stop-color:#eeeeef;stop-opacity:1;" />
      <stop
         id="stop2736"
         offset="0.59928656"
         style="stop-color:#d3d7cf;stop-opacity:1;" />
      <stop
         id="stop2738"
         offset="0.82758623"
         style="stop-color:#ffffff;stop-opacity:1;" />
      <stop
         id="stop15222"
         offset="1"
         style="stop-color:#d3d7cf;stop-opacity:1;" />
    </linearGradient>
    <pattern
       y="0"
       x="0"
       height="6"
       width="6"
       patternUnits="userSpaceOnUse"
       id="EMFhbasepattern" />
    <pattern
       y="0"
       x="0"
       height="6"
       width="6"
       patternUnits="userSpaceOnUse"
       id="EMFhbasepattern-5" />
    <linearGradient
       inkscape:collect="always"
       xlink:href="#linearGradient4287"
       id="linearGradient4293"
       x1="36.360001"
       y1="400"
       x2="363.59998"
       y2="0.29210579"
       gradientUnits="userSpaceOnUse"
       gradientTransform="translate(192.99806,322.36222)" />
    <linearGradient
       inkscape:collect="always"
       id="linearGradient4287">
      <stop
         style="stop-color:#4e505d;stop-opacity:1;"
         offset="0"
         id="stop4289" />
      <stop
         style="stop-color:#7a859c;stop-opacity:1"
         offset="1"
         id="stop4291" />
    </linearGradient>
  </defs>
  <sodipodi:namedview
     id="base"
     pagecolor="#ffffff"
     bordercolor="#666666"
     borderopacity="1.0"
     inkscape:pageopacity="0.0"
     inkscape:pageshadow="2"
     inkscape:zoom="1.4142136"
     inkscape:cx="464.74844"
     inkscape:cy="469.70677"
     inkscape:document-units="px"
     inkscape:current-layer="layer1"
     showgrid="false"
     showguides="true"
     inkscape:guide-bbox="true"
     inkscape:window-width="1600"
     inkscape:window-height="837"
     inkscape:window-x="-4"
     inkscape:window-y="-4"
     inkscape:window-maximized="1"
     inkscape:snap-bbox="true"
     inkscape:snap-bbox-edge-midpoints="false"
     inkscape:bbox-nodes="true"
     inkscape:snap-nodes="true">
    <sodipodi:guide
       position="560,730.00002"
       orientation="0,1"
       id="guide3338" />
    <sodipodi:guide
       position="560,330.00001"
       orientation="0,1"
       id="guide3340" />
    <sodipodi:guide
       position="193,682.25002"
       orientation="1,0"
       id="guide3344" />
    <sodipodi:guide
       position="593.00001,570.00001"
       orientation="1,0"
       id="guide3346" />
    <inkscape:grid
       type="xygrid"
       id="grid3440" />
    <sodipodi:guide
       position="-111.01577,704.98548"
       orientation="0,1"
       id="guide4151" />
    <sodipodi:guide
       position="54.25,355.00001"
       orientation="0,1"
       id="guide4153" />
  </sodipodi:namedview>
  <metadata
     id="metadata7">
    <rdf:RDF>
      <cc:Work
         rdf:about="">
        <dc:format>image/svg+xml</dc:format>
        <dc:type
           rdf:resource="http://purl.org/dc/dcmitype/StillImage" />
        <dc:title>server web secure</dc:title>
        <dc:date>June 2015</dc:date>
        <dc:creator>
          <cc:Agent>
            <dc:title>Johannes Hechler</dc:title>
          </cc:Agent>
        </dc:creator>
        <dc:rights>
          <cc:Agent>
            <dc:title>Johannes Hechler</dc:title>
          </cc:Agent>
        </dc:rights>
        <dc:publisher>
          <cc:Agent>
            <dc:title>RRZE</dc:title>
          </cc:Agent>
        </dc:publisher>
        <dc:contributor>
          <cc:Agent>
            <dc:title>Ute Weber, Hendrik Eggers</dc:title>
          </cc:Agent>
        </dc:contributor>
      </cc:Work>
    </rdf:RDF>
  </metadata>
  <g
     inkscape:label="Ebene 1"
     inkscape:groupmode="layer"
     id="layer1">
    <g
       id="g4173">
      <path
         id="rect4239"
         d="M 232.99414 322.36133 C 220.90808 322.36133 211.17773 332.09166 211.17773 344.17773 L 211.17773 409.625 C 211.17773 421.71106 220.90808 431.44141 232.99414 431.44141 L 247.53711 431.44141 L 247.53711 465.46289 L 265.71875 465.46289 L 265.71875 431.44141 L 520.23828 431.44141 L 520.23828 465.46289 L 538.41797 465.46289 L 538.41797 431.44141 L 553.00391 431.44141 C 565.08997 431.44141 574.82031 421.71106 574.82031 409.625 L 574.82031 344.17773 C 574.82031 332.09166 565.08997 322.36133 553.00391 322.36133 L 232.99414 322.36133 z "
         style="fill:url(#linearGradient4293);fill-opacity:1;stroke:none;stroke-width:36;stroke-linejoin:round;stroke-miterlimit:4;stroke-dasharray:none" />
      <rect
         ry="9.0899944"
         y="376.90228"
         x="247.53806"
         height="18.179989"
         width="72.720001"
         id="rect4253"
         style="fill:#ffffff;fill-opacity:1;stroke:none;stroke-width:36;stroke-linejoin:round;stroke-miterlimit:4;stroke-dasharray:none" />
      <path
         id="rect4259"
         d="m 202.08805,322.3622 381.82149,0 c 5.03585,0 9.08998,4.05414 9.08998,9.08999 l 0,381.81997 c 0,5.0359 -4.05413,9.09 -9.08998,9.09 l -381.82149,0 c -5.03585,0 -9.08999,-4.0541 -9.08999,-9.09 l 0,-381.81997 c 0,-5.03585 4.05414,-9.08999 9.08999,-9.08999 z"
         style="fill:none;fill-opacity:1;stroke:none;stroke-width:36;stroke-linejoin:round;stroke-miterlimit:4;stroke-dasharray:none"
         inkscape:connector-curvature="0" />
      <path
         inkscape:connector-curvature="0"
         id="path4350"
         d="M 474.80861,485.98134 A 118.19073,118.19004 0 0 0 384.834,527.73329 c 3.18734,6.57583 5.59086,13.60574 6.875,21.0918 a 100.01073,99.98996 0 0 1 43.49609,-36.36133 c -8.1215,15.3353 -13.93388,30.74785 -17.60351,46.23633 l -24.88282,0 c 0.0282,0.82843 0.0449,1.66157 0.0449,2.5 l 0,15.68164 21.50977,0 c -2.35162,18.07806 -1.87799,36.25807 1.11914,54.53711 l -4.41406,0 0,18.18359 8.21289,0 c 3.93095,15.50469 9.60901,31.08071 16.88672,46.72461 a 100.01073,99.98996 0 0 1 -25.09961,-15.24609 l 0,22.5625 a 118.19073,118.19004 0 0 0 63.8301,18.71875 118.19073,118.19004 0 0 0 118.1914,-118.18945 118.19073,118.19004 0 0 0 -118.1914,-118.19141 z m 9.07031,18.63672 a 100.01073,99.98996 0 0 1 9.39844,1.32617 c 10.54369,18.07676 17.50218,35.65692 21.55664,52.75586 l -30.95508,0 0,-54.08203 z m -18.18164,0.043 0,54.03906 -30.85742,0 c 4.30392,-17.67263 11.39709,-35.2516 21.46093,-52.74219 a 100.01073,99.98996 0 0 1 9.39649,-1.29687 z m 48.97461,7.83789 a 100.01073,99.98996 0 0 1 49.21094,46.20117 l -30.49415,0 c -3.67631,-14.87757 -9.72905,-30.24634 -18.71679,-46.20117 z m -83.27735,64.38281 34.30274,0 0,54.53711 -33.41211,0 c -2.99615,-18.28065 -3.35531,-36.45768 -0.89063,-54.53711 z m 52.48438,0 34.2207,0 c 2.32258,18.76897 1.31977,36.93747 -1.99218,54.53711 l -32.22852,0 0,-54.53711 z m 52.88867,0 34.23438,0 a 100.01073,99.98996 0 0 1 3.81836,27.26953 100.01073,99.98996 0 0 1 -3.88477,27.26758 l -36.70703,0 c 3.62874,-17.55588 4.90396,-35.66216 2.53906,-54.53711 z m -179.9043,20.38477 a 118.19073,118.19004 0 0 0 -0.24609,6.90625 118.19073,118.19004 0 0 0 18.36133,63.01172 l 0,-53.16797 c -0.44133,-0.14547 -1.2747,-0.43532 -2.00977,-0.70118 A 18.0018,18.0018 0 0 1 356.86329,597.2665 Z m 79.27735,52.33593 29.55664,0 0,54.08204 a 100.01073,99.98996 0 0 1 -9.2461,-1.3086 c -8.99162,-17.6887 -15.81375,-35.27845 -20.31054,-52.77344 z m 47.73828,0 27.9668,0 c -5.1349,18.36648 -12.51124,36.09012 -20.94922,53.19532 a 100.01073,99.98996 0 0 1 -7.01758,0.85156 l 0,-54.04688 z m 45.74414,0 34.15625,0 a 100.01073,99.98996 0 0 1 -52.85156,47.78321 c 7.2551,-15.6164 13.83516,-31.48589 18.69531,-47.78321 z"
         style="fill:#4e505d;fill-opacity:1;stroke:none;stroke-width:36;stroke-linejoin:round;stroke-miterlimit:4;stroke-dasharray:none" />
      <path
         sodipodi:nodetypes="cscssssscscsscsscsscccscsccc"
         style="fill:#99b000;fill-opacity:1;fill-rule:evenodd;stroke:none"
         d="m 388.14286,600.1223 c -3.23869,-3.1027 -7.4787,-3.1402 -11.81434,-4.6984 l -1.56506,0 0,-34.2239 c 0,-20.6106 -11.61775,-38.2959 -26.89883,-53.0558 -15.28109,-14.7599 -33.57218,-22.162 -54.87449,-22.162 -21.30229,0 -39.59382,7.4021 -54.87479,22.162 -15.28102,14.7599 -28.14673,32.4803 -26.94432,53.0558 l 0,34.2239 -1.56499,0 c -4.60708,0 -8.53,1.5957 -11.76865,4.6984 -3.23865,3.147 -4.8808,6.9589 -4.8808,11.4351 l 0,94.71496 c 0,4.4768 1.64215,8.2887 4.8808,11.3914 3.23865,3.147 7.16157,4.6984 11.76865,4.6984 l 166.72248,0 c 4.60713,0 8.57565,-1.5514 11.81434,-4.6984 3.23868,-3.1027 4.8352,-6.9146 4.8352,-11.3914 l 0,-94.71496 c 0,-4.4762 -1.59652,-8.2881 -4.8352,-11.4351 z m -49.91011,-4.6984 -90.48564,0 0,-34.2239 c 0,-11.8788 8.33327,-18.8322 17.00014,-27.2095 8.71253,-8.3772 15.97241,-12.588 28.24289,-12.588 12.27051,0 19.53038,4.2108 28.19665,12.588 8.6669,8.3773 16.58981,15.3307 17.04596,27.2095 z"
         id="path4168-5"
         inkscape:connector-curvature="0" />
      <rect
         ry="9.0900002"
         y="631.41913"
         x="283.8566"
         height="54.543034"
         width="18.18"
         id="rect4525-3"
         style="fill:#ffffff;fill-opacity:1;stroke:none;stroke-width:36;stroke-linejoin:round;stroke-miterlimit:4;stroke-dasharray:none" />
    </g>
  </g>
</svg>
